Papirus/64x64/apps/org.kde.karp.svg

<svg width="64" height="64" version="1.1" xmlns="http://www.w3.org/2000/svg">
 <path d="m14.819656 5.006034h-3.819656v51.629422l3.819656 0.633273zm-0.126506-0.006034v52.258296h35.360157c1.632511 0 2.946689-2.592762 2.946689-5.026894v-42.837772c0-2.4340652-1.314178-4.393624-2.946689-4.393624zm-3.69315 10.991003v45.008997h38.647164c1.784266 0 3.220607-1.959706 3.220607-4.393952v-36.221009c0-2.434328-1.436341-4.394036-3.220607-4.394036z" style="opacity:.2"/>
 <path d="m11 15.9999v43.9999h38.769c1.7899 0 3.2308-1.9157 3.2308-4.2955v-35.4088c0-2.3798-1.4409-4.2956-3.2308-4.2956z" style="fill:#a80000"/>
 <path d="m12.9999 22v35.9998h36.8628c1.7379 0 3.1371-1.8823 3.1371-4.2203v-27.5592c0-2.3381-1.3992-4.2203-3.1371-4.2203z" style="fill:#e4e4e4"/>
 <path d="m11 5.99998v49.99982h38.4756c1.7899 0 3.5242-2.3299 3.5242-4.6661v-41.1166c0-2.3363-1.4409-4.21712-3.2308-4.21712z" style="fill:#a80000"/>
 <path d="m12.9999 3.99999v49.99991h36.923c1.7046 0 3.0769-2.4808 3.0769-4.8097v-40.98647c0-2.32888-1.3723-4.20374-3.0769-4.20374z" style="fill:#c40f0f"/>
 <path d="m14.4845 3.99999-3.1114 4.07896c3.9941 12.17625 15.8415 25.12025 21.3418 22.49365-3.5257 0.2606-10.3191-14.7261-10.3191-14.7261s17.1856 10.5597 10.3825 14.6853c1.0336-0.1165 2.0753-0.746 3.0594-1.98 4.2017-5.3464-3.4193-16.7528-15.9446-24.54503z" style="fill:#ff5c5c;stop-color:#000000"/>
 <path d="m17 3.99999h-6v51.36971l6 0.6301z" style="fill:#a80000"/>
 <path d="m11 54.0003v5.9995h6v-2h-4.0001v-2h4.0001v-2.0004z" style="fill:#a80000"/>
 <line x1="13.499998" x2="13.499998" y1="5.965519" y2="54.159321" stroke="#acacac" stroke-dasharray="40, 40" stroke-linecap="round" stroke-width=".510259" style="stroke-dasharray:2.94828;stroke-width:.999997"/>
 <path d="m48.097656 20c-0.639365 0-1.267714 0.301981-1.662109 0.865234l-1.162109 1.660157-1.16211 1.660156-15.111328 21.580078 2.904297 2.035156-2.904297-2.033203v6.232422l3-1.082031 2.806641-1.082031h2e-3l15.113281-21.582032 1.164063-1.660156 1.162109-1.660156c0.24776-0.353839 0.365234-0.758504 0.365234-1.160156 0-0.639366-0.300028-1.269669-0.863281-1.664063l-2.490281-1.742187c-0.353838-0.247761-0.760459-0.367188-1.16211-0.367188z" style="opacity:.2"/>
 <path d="m45.273 21.524641 1.162302-1.659936c0.394395-0.563253 1.023708-0.864704 1.663073-0.864704 0.401651 0 0.807269 0.118964 1.161107 0.366724l2.489906 1.74345c0.563253 0.394394 0.864705 1.023707 0.864705 1.663073 0 0.401653-0.118966 0.807273-0.366726 1.161112l-1.162367 1.65964z" style="fill:#999999"/>
 <path d="m32 49.918019-3-2.034024v-3.116005l5.808 4.068049z" style="fill:#c4c4c4"/>
 <path d="m29 51v-3.116005l3 2.034024z" fill="#424048"/>
 <path d="M 44.111,23.185473 29,44.765638 34.808489,48.837366 49.921,27.254 Z" style="fill:#999999"/>
 <path d="m44.111 23.184577 1.162-1.659936 5.812 4.069359-1.164 1.66z" style="fill:#c4c4c4"/>
 <path d="m48.097656 19c-0.639365 0-1.267714 0.301981-1.662109 0.865234l-1.162109 1.660157-1.16211 1.660156-15.111328 21.580078 0.46875 0.330078h0.001953l14.640625-20.910156 1.16211-1.660156 1.162109-1.660157c0.394395-0.563253 1.022744-0.865234 1.662109-0.865234 0.401651 0 0.808272 0.119427 1.16211 0.367188l2.490234 1.742187c0.411699 0.288275 0.682762 0.702534 0.798828 1.154297 0.040262-0.161759 0.064453-0.325791 0.064453-0.490234 0-0.639366-0.300028-1.269669-0.863281-1.664063l-2.490234-1.742187c-0.353838-0.247761-0.760459-0.367188-1.16211-0.367188zm-18.628906 26.095703-0.46875-0.328125v0.998047l0.46875-0.669922zm-0.46875 0.669922v0.001953l2.904297 2.033203-2.904297-2.035156z" style="fill:#ffffff;opacity:.2"/>
 <path d="M 14.693359,4 V 4.00586 H 11 v 1 h 3.693359 V 5 H 50.052734 C 51.685245,5 53,6.960466 53,9.3945312 v -1 C 53,5.960466 51.685245,4 50.052734,4 Z" style="fill:#ffffff;opacity:.2"/>
</svg>

<svg xmlns="http://www.w3.org/2000/svg" width="64" height="64" version="1.1">
 <path style="opacity:0.2" d="M 11,17 V 61 H 49.769 C 51.559,61 53,59.084 53,56.705 V 21.296 C 53,18.916 51.559,17 49.769,17 Z"/>
 <path style="fill:#a80000" d="m 11 16 v 44 h 38.769 c 1.79 0 3.231-1.916 3.231-4.295 v -35.409 c 0-2.38-1.441-4.296-3.231-4.296 z"/>
 <path style="fill:#e4e4e4" d="M 13,47 V 58 H 49.863 C 51.601,58 53,56.118 53,53.78 V 51 L 49,47 Z"/>
 <path style="fill:#a80000" d="M 11,46 V 56 H 49.476 C 51.266,56 53,53.67 53,51.334 V 49 L 49,46 Z"/>
 <path style="fill:#c40f0f" d="m 13 4 v 50 h 36.923 c 1.705 0 3.077-2.481 3.077-4.81 v -40.986 c 0-2.329-1.372-4.204-3.077-4.204 z"/>
 <path style="opacity:0.2" d="M 48.098,20 C 47.459,20 46.83,20.302 46.436,20.865 L 29,45.768 V 52 L 34.807,49.836 52.246,24.934 C 52.494,24.58 52.613,24.175 52.613,23.773 52.613,23.134 52.311,22.503 51.748,22.109 L 49.26,20.367 C 48.906,20.119 48.5,20 48.098,20 Z"/>
 <path style="fill:#ff5c5c" d="m 14.485 4-3.111 4.079 c 3.994 12.176 15.841 25.12 21.342 22.494-3.526 0.261-10.319-14.726-10.319-14.726 s 17.186 10.56 10.383 14.685 c 1.034-0.117 2.075-0.746 3.059-1.98 4.202-5.346-3.419-16.753-15.945-24.545 z"/>
 <path style="fill:#a80000" d="m 17 4 h -6 v 51.37 l 6 0.63 z"/>
 <path style="fill:#c4c4c4" d="M 44.111,23.185 45.273,21.525 48.57,23 51.085,25.594 49.921,27.254 46.473,26 Z"/>
 <path style="fill:#999999" d="m 45.273 21.525 1.162-1.66 c 0.394-0.563 1.024-0.865 1.663-0.865 0.402 0 0.807 0.119 1.161 0.367 l 2.49 1.743 c 0.563 0.394 0.865 1.024 0.865 1.663 0 0.402-0.119 0.807-0.367 1.161 l -1.162 1.66 z"/>
 <path style="fill:#c4c4c4" d="M 32,49.918 30,49.569 29,47.884 V 44.768 L 32.495,46 34.808,48.836 Z"/>
 <path fill="#424048" d="m 29 51 v -3.116 l 3 2.034 z"/>
 <path style="fill:#999999" d="M 44.111,23.185 29,44.766 34.808,48.837 49.921,27.254 Z"/>
 <path style="fill:#ffffff;opacity:0.1" d="M 11 4 L 11 5 L 49.924 5 C 51.629 5 53 6.8741 53 9.2031 L 53 8.2031 C 53 5.8741 51.629 4 49.924 4 L 11 4 z"/>
 <path style="fill:#ffffff;opacity:0.2" d="M 48.098 19 C 47.459 19 46.83 19.302 46.436 19.865 L 29 44.768 L 29 45.768 L 46.436 20.865 C 46.83 20.302 47.459 20 48.098 20 C 48.5 20 48.906 20.119 49.26 20.367 L 51.748 22.109 C 52.16 22.398 52.431 22.813 52.547 23.266 C 52.588 23.103 52.613 22.939 52.613 22.773 C 52.613 22.134 52.311 21.503 51.748 21.109 L 49.26 19.367 C 48.906 19.119 48.5 19 48.098 19 z"/>
</svg>
